src/components/Icon/svg-icon/main/work.svg

<svg xmlns="http://www.w3.org/2000/svg" width="24" height="24"><path fill="#677078" d="M22 6h-6V4c0-1.1-.9-2-2-2h-4c-1.1 0-2 .9-2 2v2H2v15h20V6zm-8 0h-4V4h4v2z"/></svg>

<svg xmlns="http://www.w3.org/2000/svg" width="24" height="24" viewBox="0 0 24 24">
  <path fill="#677078" d="M22,6 L16,6 L16,4 C16,2.9 15.1,2 14,2 L10,2 C8.9,2 8,2.9 8,4 L8,6 L2,6 L2,21 L22,21 L22,6 Z M14,6 L10,6 L10,4 L14,4 L14,6 Z"/>
</svg>
